X:1
T:Melrose
T:John Wall  Callcott (1766-1821)
T:Sir Walter Scott, from Canto II of the "Lay of the last minstrel"
T:Melrose
T:A glee
C:John Wall  Callcott (1766-1821)
Z:Sir Walter Scott, from Canto II
Z:of the "Lay of the last minstrel"
%%score [ 1 2 3 ] { ( 4 6 ) | 5 }
L:1/8
Q:1/8=160
M:2/4
K:F
V:1 treble nm="1st Treble"
V:2 treble nm="2nd Treble"
V:3 bass nm="Bass"
V:4 treble nm="Piano"
V:6 treble 
V:5 bass 
V:1
"^Moderately fast" z4 | z4 | z4 | z4 |!mf! AG AB | c2 BA | d2 f2 | c2 z2 | cB AG | dc BA | G2 A2 | %11
w: ||||Go _ vi- sit|it by the|pale moon-|light,|go _ vi- sit|it _ by the|pale moon-|
 G2 z2 | cG EG | c2 z c | d=B GB | d2 z2 | e2 dc | f2 ee | ed dc |{c} =B2 z2 |"^cresc." c>c e2 | %21
w: light;|If _ thou woud'st|view fair|Mel- * rose a-|right,|Go vi- sit|it by the|pale * * moon-||For the gay|
 A3 A | df/e/ dc | =B2 z2 | g2 z e/c/ | A2 z d | c2 =B2 |1 c4 :|2 c2 z c/c/ || c2 G2 | B2 cB | %31
w: beams of|light _ _ _ some|day|Gild, but to|flout, the|ru- ins|gray.|gray. When the|bro- ken|arch- es are|
 _A2 BA | G2 GG | _A2 B2 | c2 _e2 | e_d cB | c2 z2 |!p! c>c f2 | e2 f2 | B2 _A2 | _d4 | cB _AG | %42
w: black in _|night, and each|shaft- ed|O- riel|glim- * mers *|white;|when the cold|light's un-|cer- tain|shower|* Streams on the|
 B_A G2 | _A2 B2 | !fermata!c2 z2 | z4 | z2"^dolce" c2 | f2 c2 | B2 cB | A2 A2 | G2 c2 | c2 c2 | %52
w: ru- * ined|cen- tral|tower;||when|sil- ver|ed- ges the|im- age-|ry, the|im- age-|
 c2 z2 | z4 | z4 | z2 ff | f4- | f2 f2 | c2 cc | c4 | =B4 | c4 | z2 A2 | A2 d2 | ^c2 e>d | d2 f>e | %66
w: ry|||And the|scrolls|_ that|teach thee to|live|and|die;|When|dis- tant|Tweed is _|heard to _|
 e2 AA | d2 dd | d4- | d4- | d4- | d2 z2 | z2 cc | B2 AA | G2 FF |"^dim." F4 | E4 | D4 || %78
w: rave, And the|owl- et to|hoot|_|||And the|owl- et to|hoot o'er the|dead|man's|grave,|
[M:3/4]"^dolce""^Expressively"[Q:1/4=66] f2 | c4 z2 | z2 c2 c2 | c4 z2 | z2 c2 c2 | f4 A2 | d4 c2 | %85
w: Then|go,|go, then|go|go and|view Saint|Da- vid's|
 (c2 B2) A2 | (A2 G2) F2 | c4 ec | de f2 z2 | e4 ge | f2 d2 z2 | (e2 g2) B2 |{B} A4 z2 | f4 f2 | %94
w: ru- * ined|pile; * And|home re- *|turn- * ing,|home re- *|turn- ing|sooth- * ly||sooth- ly|
{f} e4 c2 | f4 c>B | A4 c2 | d4 c2 | B4 d2 | cB c2 A2 | B2 z2 B2 | BA B2 G2 | A2 z2 c2 | f6- | %104
w: * Was|ne- ver _|scene so|sad, so|fair! Was|ne- ver scene so|sad, was|ne- ver scene so|sad, so|fair!|
 fd gf ed | c4 f2 | Gd/B/ A2 G2 | F2 z2!pp! d2 | c2 z2 e2 | f2 z2 d2 | c2 z2 B2 | A6 |] %112
w: _ was ne- ver scene so|sad, was|ne- ver _ scene so|sad, so|sad, so|fair! so|sad! so|fair!|
V:2
 z4 | z4 | z4 | z4 |!mf! FE FG | A2 GF | B2 d2 | A2 z2 | AG FE | BA GF | E2 F2 | E2 z2 | z4 | %13
w: ||||Go _ vi- sit|it by the|pale moon-|light,|go _ vi- sit|it _ by the|pale moon-|light;||
 z G FE | D2 z2 | z D EF | G2 FE | A2 GG | GF FE |{E} D2 z2 |"^cresc." G>G G2 | F3 F | F3 ^F | %23
w: If thou woud'st|view|fair Mel- rose,|Go vi- sit|it by the|pale * * moon-||For the gay|beams of|light some|
 G2 G2- | G2 z G/G/ | F2 z F | E2 D2 |1 E4 :|2 E2 z E/E/ || E2 E2 | G2 _AG | F2 GF | E2 EE | %33
w: day Gild,|* but to|flout, the|ru- ins|gray.|gray. When the|bro- ken|arch- es are|black in _|night, and each|
 F2 G2 | _A2 c2 | cB _AG | _A2 z2 |!p! _A>A c2 | B2 _A2 | G2 F2 | F4 | EG FE | GF E2 | F2 F2 | %44
w: shaft- ed|O- riel|glim- * mers *|white;|when the cold|light's un-|cer- tain|shower|Streams * on the|ru- * ined|cen- tral|
 !fermata!E2"^dolce" c2 | f2 c2 | B2 cB | A2 A2 | G2 G2 | F2 F2 | E2 E2 | F2 A2 | G2 GG | A3 B | %54
w: tower; When|sil- ver|ed- ges the|im- age-|ry, the|im- age-|ry, the|im- age-|ry, And the|scrolls that|
 c2 BA | d2 d2 | c2 A2 | d2 cB | c2 BA | G4 | F4 | E4 | z4 | z4 | z4 | z4 | z4 | z4 | z2 AA | %69
w: teach thee to|live and|die, the|scrolls that _|teach thee to|live|and|die;|||||||And the|
 c2 BA | c2 BA | B2 G2 | ^F2 AA | G2 FF | E2 DD |"^dim." D4 | ^C4 | D4 ||[M:3/4] z2 | %79
w: owl- et to|hoot o'er the|dead man's|grave, And the|owl- et to|hoot o'er the|dead|man's|grave,||
 z!p! A AA AA | B2 z2 z2 | z G GG GG | A2 z2 z2 | z2 F2 F2 | (F2 G2) A2 | (D2 E2) F2 | (F2 E2) z2 | %87
w: but go a- lone the|while,|but go a- lone the|while,|view Saint|Da- * vid's|ru- * ined|pile; *|
 z6 | z6 | c4 ec | d2 =B2 z2 | c2 G4 |{G} F4 z2 | F2 F4 | G4 z2 | z6 | z6 | z6 | z2 z2 B2 | %99
w: ||home re- *|tur- ning|sooth- ly||sooth- ly|swear,||||Was|
 AG A2 ^F2 | G2 z2 G2 | GF G2 E2 | F2 z2 z2 | AB cd _ec | (d3 c) BA | (G2 A2) F2 | D>G F2 E2 | %107
w: ne- ver scene so|sad, was|ne- ver scene so|sad,|ne- ver scene so sad, so|fair! _ so _|sad, _ was|ne- ver scene so|
 F2 z2!pp! B2 | A2 z2 G2 | A2 z2 B2 | A2 z2 G2 | F6 |] %112
w: sad, so|sad, so|fair! so|sad! so|fair!|
V:3
!mf! F,C, A,,C, | F,2 z F, | G,E, C,E, | G,2 z2 | z4 | z4 | z4 | z4 | C,2 C,C, | C,2 C,C, | %10
w: If _ thou woud'st|view fair|Mel- * rose a-|right,|||||go vi- sit|it by the|
 C,2 C,2 | C,2 z2 | z4 | z E, D,C, | =B,,2 z2 | z =B,, C,D, | C,2 C,C, | C,2 C,C, | F,2 F,2 | %19
w: pale moon-|light;||If thou woud'st|view|fair Mel- rose,|Go vi- sit|it by the|pale moon-|
 G,2 z2 |"^cresc." E,>E, C,2 | F,3 F, | D,3 D, | G,2 z2 | E,2 z E,/E,/ | F,2 z D, | G,2 G,,2 |1 %27
w: light;|For the gay|beams of|light some|day|Gild, but to|flout, the|ru- ins|
 C,4 :|2 C,2 z C,/C,/ || C,2 C,2 | C,2 C,C, | C,2 C,2 | C,2 C,C, | F,2 _E,2 | _A,2 C,2 | %35
w: gray.|gray. When the|bro- ken|arch- es are|black in|night, and each|shaft- ed|O- riel|
 _D,2 _E,2 | _A,,2 z2 |!p! _A,>A, A,2 | G,2 F,2 | E,2 F,2 | B,,4 | C,2 C,C, | C,2 C,2 | F,2 _D,2 | %44
w: glim- mers|white;|when the cold|light's un-|cer- tain|shower|Streams on the|ru- ined|cen- tral|
 !fermata!C,2 z2 | z4 | z4 | z4 | z2"^dolce" C,2 | F,2 C,2 | B,,2 C,B,, | A,,2 F,,2 | C,2 C,C, | %53
w: tower;||||when|sil- ver|ed- ges the|im- age-|ry, And the|
 F,3 G, | A,2 G,F, | B,2 B,2 | A,2 F,2 | B,2 A,G, | A,2 G,F, | E,4 | D,4 | C,4 | z2 A,2 | F,2 D,2 | %64
w: scrolls that|teach thee to|live and|die, the|scrolls that _|teach thee to|live|and|die;|When|dis- tant|
 A,,2 A,2 | F,2 D,2 | A,,2 z2 | z4 | z2 ^F,F, | A,2 G,^F, | A,2 G,^F, | G,2 _E,2 | D,2 ^F,F, | %73
w: Tweed is|heard to|rave,||And the|owl- et to|hoot o'er the|dead man's|grave, And the|
 G,2 D,D, | ^C,2 D,D, |"^dim." A,,4 | A,,4 | D,4 ||[M:3/4] z2 | z!p! F, F,F, F,F, | G,2 z2 z2 | %81
w: owl- et to|hoot o'er the|dead|man's|grave,||but go a- lone the|while,|
 z C, C,C, C,C, | F,2 z2 z2 | z2 D,2 C,2 | B,,4 A,,2 | G,,4 F,,2 | C,4 z2 | z2 E,2 C,2 | %88
w: but go a- lone the|while,|view Saint|Da- vid's|ru- ined|pile;|home re-|
 G,2 G,,2 z2 | z2 C,2 C,2 | G,2 G,,2 z2 | (C,2 E,2) C,2 | F,4 z2 | _D,4 D,2 | C,4 z2 | z6 | %96
w: turn- ing,|home re-|tur- ning,|sooth- * ly|swear,|sooth- ly|swear,||
 z2 z2 F,2 | B,4 F,>_E, | D,4 z2 | z2 z2 D,2 | G,A, B,2 G,2 | C,2 z2 C,2 | F,G, A,2 z2 | %103
w: Was|ne- ver _|scene|was|ne- ver scene so|sad, was|ne- ver scene|
 F,G, A,B, CA, | (B,3 A,) G,F, | (E,2 F,2) A,,2 | B,,B,, C,2 C,2 | [F,,F,]6- | [F,,F,]4 [F,,F,]2 | %109
w: ne- ver scene so sad, so|fair! _ so _|sad, _ was|ne- ver scene so|sad,|_ so|
 [F,,F,]6- | [F,,F,]6- | [F,,F,]6 |] %112
w: fair!|_||
V:4
"^Accompaniment added by William Horsley (1774-1858)" z4 | z4 | z4 | z4 |!mf! ([FA][EG] [FA][GB]) | %5
 [Ac]2 ([GB][FA]) | [Bd]2 [df]2 | [Ac]2 z2 | ([Ac][GB] [FA][EG]) | ([Bd][Ac] [GB][FA]) | %10
 [EG]2 [FA]2 | [EG]2 z2 | (cG EG) | c2 z2 | (d=B GB) | d2 z2 | [Ge]2 ([Fd][Ec]) | [Af]2 [Ge][Ge] | %18
 ([Ge][Fd]) ([Fd][Ec]) |{E} [D=Bc] x z2 |"^cresc." [Gc]>[Gc] [Ge]2 | A3 A | df/e/ dc | =B2 z2 | %24
 G2 z e/c/ | A2 z d | [Ec]2 [D=B]2 |1 c4 :|2 [Ec]2 z [Ec]/[Ec]/ || [Ec]2 [EG]2 | %30
 [GB]2 ([_Ac][GB]) | [F_A]2 ([GB][FA]) | [EG]2 [EG][EG] | ([F_A]2 [GB]2 | [_Ac]2 [c_e]2) | %35
 ([ce][B_d] [_Ac][GB]) | [_Ac]2 z2 |!p! ([_Ac]>[Ac] [cf]2 | [Be]2 [_Af]2) | B2 _A2 | _d4 | cB _AG | %42
 B_A G2 | _A2 B2 | !fermata!c2"^dolce" z2 | x4 | z2 c2 | f2 c2 | B2 cB | A2 A2 | G2 c2 | c2 c2 | %52
 c2 z2 | z4 | z4 | z2 ff | f4- | f2 f2 | c2 cc | c4 | =B4 | c4 | z2 A2 | A2 d2 | ^c2 e>d | d2 f>e | %66
 e2 AA | d2 dd | d4- | d4- | d4- | d2 z2 | z2 cc | B2 AA | G2 FF |"^dim." F4 | E4 | D4 || %78
[M:3/4]"^dolce" f2 | c4 z2 | z2 c2 c2 | c4 z2 | z2 c2 c2 | f4 A2 | d4 (c2 | c2 B2 A2) | %86
 (A2 G2) F2 | c4 (ec) | (de) f2 z2 | e4 ge | f2 d2 z2 | e2 g2 B2 |{B} A4 z2 | f4 f2 |{f} e4 c2 | %95
 f4 (c>B) | A4 c2 | d4 c2 | B4 d2 | (cB) c2 A2 | B2 z2 B2 | BA B2 G2 | A2 z2 c2 | f6- | fd gf ed | %105
 c4 f2 | Gd/B/ A2 G2 | F2 z2!pp! d2 | c2 z2 e2 | f2 z2 d2 | c2 z2 B2 | A6 |] %112
V:5
!mf! F,C, A,,C, | F,2 z F, | G,E, C,E, | G,2 z2 | z4 | z4 | z4 | z4 | C,4- | C,4- | C,4- | C,2 z2 | %12
 z4 | z E, D,C, | =B,,2 z2 | z =B,, C,D, | C,4- | C,4 | F,4 | G,2 z2 | E,2 C,2 | F,4 | D,4 | %23
 G,2 z2 | E,2 z E, | F,2 z D, | G,2 G,,2 |1 C,4 :|2 C,2 z C, || C,4- | C,4- | C,4- | C,4 | %33
 F,2 _E,2 | _A,2 C,2 | _D,2 _E,2 | _A,,2 z2 | _A,2 A,2 | G,2 F,2 | E,2 F,2 | B,,4 | C,4 | C,4 | %43
 F,2 _D,2 | !fermata!C,2 z2 | z4 | z4 | z4 | z2 C,2 | F,2 C,2 | B,,2 C,B,, | A,,2 F,,2 | C,2 C,2 | %53
 F,3 G, | A,2 G,F, | B,4 | A,2 F,2 | B,2 A,G, | A,2 G,F, | E,4 | D,4 | C,4 | z2 A,2 | F,2 D,2 | %64
 A,,2 A,2 | F,2 D,2 | A,,2 z2 | z4 | z2 ^F,2 | A,2 G,^F, | A,2 G,^F, | G,2 _E,2 | D,2 ^F,2 | %73
 G,2 D,2 | ^C,2 D,2 | A,,4- | A,,4 | D,4 ||[M:3/4] z2 | z F, F,2 F,2 | G,2 z2 z2 | z C, C,2 C,2 | %82
 F,2 z2 z2 | z2 D,2 C,2 | B,,4 A,,2 | G,,4 F,,2 | C,4 z2 | z2 E,2 C,2 | G,2 G,,2 z2 | z2 C,2 C,2 | %90
 G,2 G,,2 z2 | C,2 E,2 C,2 | F,4 z2 | _D,4 D,2 | C,4 z2 | z6 | z2 z2 F,2 | B,4 F,>_E, | D,4 z2 | %99
 z2 z2 D,2 | G,A, B,2 G,2 | C,2 z2 C,2 | F,G, A,2 z2 | F,G, A,B, CA, | B,3 A, G,F, | E,2 F,2 A,,2 | %106
 B,,2 C,4 | F,,6- | F,,6- | F,,6- | F,,6- | F,,6 |] %112
V:6
 x4 | x4 | x4 | x4 | x4 | x4 | x4 | x4 | x4 | x4 | x4 | x4 | x4 | z (G FE) | D2 z2 | z (D EF) | %16
 x4 | x4 | x4 | x4 | x4 | F3 F | F3 ^F | G2 G2- | G2 z G | F2 z F | x4 |1 x4 :|2 x4 || x4 | x4 | %31
 x4 | x4 | x4 | x4 | x4 | x4 | x4 | x4 | G2 F2 | F4 | (EG FE) | (GF) E2 | F4 | !fermata!E2 c2 | %45
 f2 c2 | B2 (cB) | A2 A2 | G2 G2 | F2 F2 | E2 E2 | F2 A2 | G2 GG | A3 B | c2 (BA) | d2 d2 | c2 A2 | %57
 d2 cB | c2 BA | G4 | F4 | E4 | z4 | z4 | z4 | z4 | z4 | z4 | z2 AA | c2 BA | c2 BA | B2 G2 | %72
 ^F2 A2 | G2 F2 | E2 D2 | D4 | ^C4 | D4 ||[M:3/4] z2 | z A A2 A2 | B2 z2 z2 | z G G2 G2 | %82
 A2 z2 z2 | z2 F2 F2 | F2 G2 A2 | D2 E2 F2 | F2 E2 z2 | z6 | x6 | c4 ec | d2 =B2 x2 | c2 G4 | %92
{G} F4 x2 | F2 F4 | G4 z2 | z6 | x6 | z6 | z2 z2 B2 | AG A2 ^F2 | G2 x2 G2 | GF G2 E2 | F2 x2 z2 | %103
 AB cd _ec | d3 c BA | G2 A2 F2- | FD/G/ F2 E2 | F2 x2 B2 | A2 x2 G2 | A2 x2 B2 | A2 x2 G2 | F6 |] %112

